X: 1
T: Eddie's Reel
R: reel
Z: 1997 by John Chambers <jc:trillian.mit.edu>
M: C|
L: 1/8
K: G
|: "G"DGBd g2g2 | DGBd g4 \
| DGBd gfed | "Am"c3d cBAF \
| "D7"DFAd f2f2 \
| "D7"DFAd f2e2 \
|1 d2d2 egec | "G"B6 z2 :|
|2 "D7"d2d2 cAFA | "G"G4- G2d2 \
[| "G"[b3d][bd] [b2d][a2c] | [g4B]- [g2B][a2c] \
| "G"[b3d][bd] [a2c][g2B] | "D7"[f6A] [g2B] \
| [a3c][ac] [a2c][g2B] | "D7"[f4A] [f2A][e2G] \
| [d2F][d2F] egec | "G"[G4B4]- [G2B2]d2 |]
[| "G"[b3d][bd] [b2d][a2c] | [g4B]- [g2B][a2c] \
| "G"[b3d][bd] [a2c][b2d] | "C"[c'6e] [fA][gB] \
| "D7"[a3c][ac] [a2c][g2B] | [f4A] [f2A][e2G] \
| "D7"[d2F][d2F] cAFA | "G"[G6G6] |]
